X:1
T:Title
%%score { ( 1 3 ) | 2 }
L:1/8
M:3/4
K:F
V:1 treble nm="Grand Piano"
V:3 treble 
V:2 bass 
V:1
 z2 z2[Q:1/4=94] FG | [CA]-[C-FA-] [CFA]F BA | _A2 =A2 FA | G4 z2 |[M:2/4] F4 |[M:1/4] AB | %6
[M:3/4] [Ac]-[CA-c-] [CAc]A [Bd][Bd] | [Ac]2 A2 cA | [EG]-[CE-G-] [CEG]2 [CEA]2 |[M:2/4] F4 | %10
[M:1/4] EF |[M:3/4] G3 ^F G_A | A2 F2 AB | c3 =B dc |[M:2/4] =B2 c2 |[M:1/4] dc |[M:3/4] [GB]4 z2 | %17
[M:7/8] [CFA]2 [CAc]3 z2 |[M:3/4] A4 z2 |[M:2/4] F4 |] %20
V:2
 z2 z2 A,B, | F,F, F,[F,A,] [F,DF][F,CF] | [F,=B,F]2 [F,CF]2 z2 | [C,C][C,C] [C,C]2 [C,C]2 | %4
[M:2/4] [F,A,][F,B,] [F,A,]2 |[M:1/4][K:treble] FG | %6
[M:3/4][K:bass] F,F, F,[F,CF] [F,F][K:treble][F,F] | [F,F]2 [F,CF]2 AF | C,C, C,2 C,2 | %9
[M:2/4] [F,A,][F,B,] [F,A,]2 |[M:1/4] z2 |[M:3/4] z6 | z2 z2[K:treble] FG | A3 _A B=A | %14
[M:2/4] _A2 =A2 |[M:1/4] BA |[M:3/4][K:bass] C,C, C,[C,C] [C,C][C,C] | %17
[M:7/8] F,2 F,3[K:treble] FC |[M:3/4][K:bass] [C,C][C,C] [C,C]2 [C,C]2 | %19
[M:2/4] [F,A,][F,B,] [F,A,]2 |] %20
V:3
 x6 | .F2 z2 z2 | x6 | EE E2 [EA]2 |[M:2/4] z D C2 |[M:1/4] x2 |[M:3/4] .C2 z2 z2 | x6 | %8
 .C2 z2 z2 |[M:2/4] z D C2 |[M:1/4] x2 |[M:3/4] x6 | x6 | x6 |[M:2/4] x4 |[M:1/4] x2 | %16
[M:3/4] CC C[Bd] [Ac][GB] |[M:7/8] x7 |[M:3/4] FF F2 [EG]2 |[M:2/4] z D C2 |] %20

